public/assets/icons/whatsapp.svg

<svg width="24" height="24" viewBox="0 0 24 24" fill="none" xmlns="http://www.w3.org/2000/svg">
<path d="M0 24L1.69505 17.837C0.649083 16.033 0.0994725 13.988 0.100477 11.891C0.103492 5.335 5.46395 0 12.0502 0C15.2464 0.001 18.2467 1.24 20.5034 3.488C22.7591 5.736 24.001 8.724 24 11.902C23.997 18.459 18.6365 23.794 12.0502 23.794C10.0507 23.793 8.08038 23.294 6.33509 22.346L0 24ZM6.62848 20.193C8.31248 21.188 9.92012 21.784 12.0462 21.785C17.5202 21.785 21.9794 17.351 21.9824 11.9C21.9844 6.438 17.5463 2.01 12.0543 2.008C6.57624 2.008 2.12007 6.442 2.11806 11.892C2.11706 14.117 2.77217 15.783 3.87239 17.526L2.86863 21.174L6.62848 20.193ZM18.0698 14.729C17.9955 14.605 17.7965 14.531 17.4971 14.382C17.1987 14.233 15.7307 13.514 15.4564 13.415C15.1831 13.316 14.9842 13.266 14.7842 13.564C14.5853 13.861 14.0126 14.531 13.8387 14.729C13.6649 14.927 13.4901 14.952 13.1917 14.803C12.8932 14.654 11.9307 14.341 10.7903 13.328C9.90304 12.54 9.30319 11.567 9.12936 11.269C8.95554 10.972 9.11128 10.811 9.25998 10.663C9.39462 10.53 9.5584 10.316 9.70811 10.142C9.85983 9.97 9.90907 9.846 10.0095 9.647C10.109 9.449 10.0598 9.275 9.98443 9.126C9.90907 8.978 9.31223 7.515 9.06405 6.92C8.8209 6.341 8.57473 6.419 8.39186 6.41L7.81914 6.4C7.6202 6.4 7.29666 6.474 7.02336 6.772C6.75006 7.07 5.9784 7.788 5.9784 9.251C5.9784 10.714 7.04848 12.127 7.19719 12.325C7.3469 12.523 9.30218 15.525 12.2974 16.812C13.0098 17.118 13.5664 17.301 13.9995 17.438C14.7149 17.664 15.366 17.632 15.8804 17.556C16.4542 17.471 17.6468 16.837 17.896 16.143C18.1452 15.448 18.1452 14.853 18.0698 14.729Z" fill="white"/>
</svg>

<svg width="24" height="24" viewBox="0 0 24 24" fill="white" xmlns="http://www.w3.org/2000/svg">
  <path d="M17.472 14.382c-.297-.149-1.758-.867-2.03-.967-.273-.099-.471-.148-.67.15-.197.297-.767.966-.94 1.164-.173.199-.347.223-.644.075-.297-.15-1.255-.463-2.39-1.475-.883-.788-1.48-1.761-1.653-2.059-.173-.297-.018-.458.13-.606.134-.133.298-.347.446-.52.149-.174.198-.298.298-.497.099-.198.05-.371-.025-.52-.075-.149-.669-1.612-.916-2.207-.242-.579-.487-.5-.669-.51-.173-.008-.371-.01-.57-.01-.198 0-.52.074-.792.372-.272.297-1.04 1.016-1.04 2.479 0 1.462 1.065 2.875 1.213 3.074.149.198 2.096 3.2 5.077 4.487.709.306 1.262.489 1.694.625.712.227 1.36.195 1.871.118.571-.085 1.758-.719 2.006-1.413.248-.694.248-1.289.173-1.413-.074-.124-.272-.198-.57-.347z"/>
  <path d="M12 0C5.373 0 0 5.373 0 12c0 2.123.554 4.117 1.528 5.845L0 24l6.337-1.508A11.945 11.945 0 0 0 12 24c6.627 0 12-5.373 12-12S18.627 0 12 0zm0 21.818a9.802 9.802 0 0 1-5.001-1.372l-.359-.214-3.72.886.898-3.618-.234-.371A9.773 9.773 0 0 1 2.182 12c0-5.418 4.4-9.818 9.818-9.818 5.418 0 9.818 4.4 9.818 9.818 0 5.418-4.4 9.818-9.818 9.818z"/>
</svg>
